X:790
T:The ship in full sail
R:Jig
B:Flute tutor(?)
B:Irish Traditional Music Session Tunes 2 n32
D:De Dannan: Star Spangled Molly.
S:My arrangement from various sources
Z:Transcription:??,arr., chords:Mike Long
M:6/8
L:1/8
K:G
E|\
"G"DGG BGG|dGG GBd|"C"ege "(G)"dBG|"D"~A3 AGE|\
"G"DGG BGG|dGG GBd|"C"ege "G"dBG|"D"AGF "G"G2:|
|:d|\
"G"dgg bgg|"C"aga "(G)"bge|"G"dgg bgg|"D"~a3 age|\
"G"dgg bgg|"C"aga "(G)"bgd|"C"ege "(G)"dBG|"D"AGF "G"G2:|
